X: 36754
T: Sheila Mulhaire's
R: jig
M: 6/8
K: Dmajor
|:f2a gfe|fed cAG|FAD AFA|dAF Gde|
faf gfe|fed cAG|FED EFG|1 Adc d2e:|2 Adc d2A||
|:d2f afd|Adf afd|ecA AcA|AcA ecA|
d2f afd|Adf afd|ecA ABc|1 dfe d2A:|2 dfe d2e||

